16x16/apps/chinese.svg

<svg height="16" width="16" xmlns="http://www.w3.org/2000/svg"><rect fill="#2095f2" height="16" rx=".857" width="16"/><g fill="#f4f4f7"><path d="m5.937 6.766.126.86-1.09.775v3.49c0 .423-.07.718-.21.887-.141.169-.48.253-.818.253-.393 0-1.059-.042-1.396-.126l-.169-.887c.366.113 1.045.17 1.439.17.14 0 .21-.17.21-.507v-2.858l-.733.49-.296-.886 1.03-.575v-1.852h-1.03v-1h1.03v-2h.944v2h1.046v1h-1.046v1.414zm4.953-3.638a12.705 12.705 0 0 1 -.885 1.872h-3.005v1h1.022v1.287c0 .253-.015.493-.043.718h-1.393v1.001h1.309c-.17 1.49-.746 2.502-1.73 3.234l.78.633c1.154-.844 1.816-2.067 2.013-3.867h2.08v3.994h.962v-3.994h1v-1h-1v-2.006h1v-1h-2.11c.31-.478.619-1.001.928-1.62zm-1.887 2.872h2.035v2.005h-2.078c.028-.197.043-.395.043-.591z"/><path d="m8.36 3.253c.337.393.59.83.759 1.308l-.886.295a4.437 4.437 0 0 0 -.718-1.35l.844-.253"/></g></svg>

<svg xmlns="http://www.w3.org/2000/svg" width="16" height="16" version="1"><rect fill="#2095f2" width="16" height="16" rx=".857" ry=".857"/><path style="fill:#f4f4f7" d="m5.937 6.766.126.86-1.09.775v3.49c0 .423-.07.718-.21.887-.141.169-.48.253-.818.253-.393 0-1.059-.042-1.396-.126l-.169-.887c.366.113 1.045.17 1.439.17.14 0 .21-.17.21-.507V8.823l-.733.49L3 8.427l1.03-.575V6H3V5h1.03V3h.944v2H6.02v1H4.974v1.414l.963-.648M10.89 3.128A12.705 12.705 0 0 1 10.005 5H7v1h1.022v1.287c0 .253-.015.493-.043.718H6.586v1.001h1.309c-.17 1.49-.746 2.502-1.73 3.234l.78.633c1.154-.844 1.816-2.067 2.013-3.867h2.08V13H12V9.006h1v-1h-1V6h1V5h-2.11c.31-.478.619-1.001.928-1.62zM9.003 6h2.035v2.005H8.96c.028-.197.043-.395.043-.591z"/><path style="fill:#f4f4f7" d="M8.36 3.253c.337.393.59.83.759 1.308l-.886.295a4.437 4.437 0 0 0-.718-1.35l.844-.253"/></svg>
